X:98
T:Kiss, The
M:C
L:1/8
B:Thompson's Compleat Collection of 200 Favourite Country Dances, vol. 3 (London, 1773)
Z:Transcribed and edited by Flynn Titford-Mock, 2007
Z:abc's:AK/Fiddler's Companion
K:Bb
F | B/B/B Bd c/c/c ce | df (e/d/c/B/) AcAF | B/B/B Bd c/c/c cb | afc=e f2F2 :|
|: F | c/c/c ce d/d/d df | edcB AcAF | Ebge DfdB | [Cc]ecA B2 [B,2B2] :|

